X: 057
M: 3/8
L: 1/16
K: C
c2c2c2 | c2c2c2 | B2(Bdce) | d4d2 |\
f2f2f2 | f2f2f2 | e2(edef) | g4g2 |
f2d2B2 | c4g2 | f2d2B2 | c4g2 |\
a2g2f2 | e2f2g2 | f2e2d2 | c4 :|
|: g2 |\
g2a2g2 | g2f2Bc | d2B2f2 | B4d2 |\
f2g2f2 | f2e2CD | E2C2G2 | C4cd |
e4f2 | g4f2 | e2efga | g4f2 |\
e2d2c2 | d2c2B2 | c4c2 | c4 :|

